src/actions/32/mail-replied.svg

<svg xmlns="http://www.w3.org/2000/svg" viewBox="0 0 32 32">
  <defs id="defs3051">
    <style type="text/css" id="current-color-scheme">
      .ColorScheme-Text {
        color:#2e3440;
      }
      </style>
  </defs>
 <path 
     style="fill:currentColor;fill-opacity:1;stroke:none" 
     d="M 5 5 L 5 9 L 2 13 L 2 16 L 3 16 L 3 14 L 5 14 L 5.7871094 14 L 16 19.570312 L 26.212891 14 L 27 14 L 29 14 L 29 26 L 14 26 L 14 27 L 30 27 L 30 26 L 30 13 L 27 9 L 27 5 L 5 5 z M 6 6 L 26 6 L 26 12.974609 L 16 18.429688 L 6 12.974609 L 6 6 z M 8 8 L 8 9 L 24 9 L 24 8 L 8 8 z M 8 11 L 8 12 L 17 12 L 17 11 L 8 11 z M 7 18.064453 L 2 22.013672 L 7 25.960938 L 7 23 L 13 23 L 13 21.025391 L 7 21.025391 L 7 18.064453 z "
     class="ColorScheme-Text"
     />
</svg>

<svg viewBox="0 0 32 32" xmlns="http://www.w3.org/2000/svg">
 <defs>
  <style type="text/css">.ColorScheme-Text {
        color:#2e3440;
      }</style>
 </defs>
 <path class="ColorScheme-Text" d="m5 5v4l-3 4v3h1v-2h2 0.78711l10.213 5.5703 10.213-5.5703h0.78711 2v12h-15v1h16v-1-13l-3-4v-4h-22zm1 1h20v6.9746l-10 5.4551-10-5.4551v-6.9746zm2 2v1h16v-1h-16zm0 3v1h9v-1h-9zm-1 7.0645-5 3.9492 5 3.9473v-2.9609h6v-1.9746h-6v-2.9609z" fill="currentColor"/>
</svg>
